dist/icons/svgs/image-solid.svg

<svg xmlns="http://www.w3.org/2000/svg" width="24" height="24" fill="currentcolor" class="icon-image-solid" viewBox="0 0 24 24">
  <path d="M2 5.75C2 4.38281 3.09375 3.25 4.5 3.25H19.5C20.8672 3.25 22 4.38281 22 5.75V18.25C22 19.6562 20.8672 20.75 19.5 20.75H4.5C3.09375 20.75 2 19.6562 2 18.25V5.75ZM14.6172 9.92969C14.4609 9.65625 14.1484 9.5 13.875 9.5C13.5625 9.5 13.25 9.65625 13.0938 9.92969L9.69531 14.9297L8.64062 13.6016C8.48438 13.4062 8.21094 13.25 7.9375 13.25C7.625 13.25 7.35156 13.4062 7.19531 13.6016L4.69531 16.7266C4.46094 17.0391 4.42188 17.4297 4.57812 17.7422C4.73438 18.0547 5.04688 18.25 5.4375 18.25H9.1875H10.4375H18.5625C18.875 18.25 19.2266 18.0938 19.3828 17.7812C19.5391 17.4688 19.5 17.0781 19.3047 16.8047L14.6172 9.92969ZM6.375 9.5C7.03906 9.5 7.625 9.14844 7.97656 8.5625C8.32812 8.01562 8.32812 7.27344 7.97656 6.6875C7.625 6.14062 7.03906 5.75 6.375 5.75C5.67188 5.75 5.08594 6.14062 4.73438 6.6875C4.38281 7.27344 4.38281 8.01562 4.73438 8.5625C5.08594 9.14844 5.67188 9.5 6.375 9.5Z"/>
</svg>

<svg xmlns="http://www.w3.org/2000/svg" width="24" height="24" fill="currentColor" class="icon-image-solid" viewBox="0 0 24 24">
  <path d="M2 5.75c0-1.367 1.094-2.5 2.5-2.5h15c1.367 0 2.5 1.133 2.5 2.5v12.5c0 1.406-1.133 2.5-2.5 2.5h-15a2.47 2.47 0 0 1-2.5-2.5zm12.617 4.18a.89.89 0 0 0-.742-.43c-.312 0-.625.156-.781.43l-3.399 5-1.054-1.328a.95.95 0 0 0-.703-.352.97.97 0 0 0-.743.352l-2.5 3.125c-.234.312-.273.703-.117 1.015.156.313.469.508.86.508h13.124c.313 0 .665-.156.82-.469a.97.97 0 0 0-.077-.976zM6.375 9.5c.664 0 1.25-.352 1.602-.937.351-.547.351-1.29 0-1.876-.352-.546-.938-.937-1.602-.937-.703 0-1.29.39-1.64.938-.352.585-.352 1.328 0 1.875a1.87 1.87 0 0 0 1.64.937"/>
</svg>
